svg/business/currency_lira_line.svg

<?xml version="1.0" encoding="UTF-8"?>
<svg width="24px" height="24px" viewBox="0 0 24 24" version="1.1" xmlns="http://www.w3.org/2000/svg" xmlns:xlink="http://www.w3.org/1999/xlink">
    <title>currency_lira_line</title>
    <g id="页面-1" stroke="none" stroke-width="1" fill="none" fill-rule="evenodd">
        <g id="Business" transform="translate(-240.000000, -288.000000)" fill-rule="nonzero">
            <g id="currency_lira_line" transform="translate(240.000000, 288.000000)">
                <path d="M24,0 L24,24 L0,24 L0,0 L24,0 Z M12.5934901,23.257841 L12.5819402,23.2595131 L12.5108777,23.2950439 L12.4918791,23.2987469 L12.4918791,23.2987469 L12.4767152,23.2950439 L12.4056548,23.2595131 C12.3958229,23.2563662 12.3870493,23.2590235 12.3821421,23.2649074 L12.3780323,23.275831 L12.360941,23.7031097 L12.3658947,23.7234994 L12.3769048,23.7357139 L12.4804777,23.8096931 L12.4953491,23.8136134 L12.4953491,23.8136134 L12.5071152,23.8096931 L12.6106902,23.7357139 L12.6232938,23.7196733 L12.6232938,23.7196733 L12.6266527,23.7031097 L12.609561,23.275831 C12.6075724,23.2657013 12.6010112,23.2592993 12.5934901,23.257841 L12.5934901,23.257841 Z M12.8583906,23.1452862 L12.8445485,23.1473072 L12.6598443,23.2396597 L12.6498822,23.2499052 L12.6498822,23.2499052 L12.6471943,23.2611114 L12.6650943,23.6906389 L12.6699349,23.7034178 L12.6699349,23.7034178 L12.678386,23.7104931 L12.8793402,23.8032389 C12.8914285,23.8068999 12.9022333,23.8029875 12.9078286,23.7952264 L12.9118235,23.7811639 L12.8776777,23.1665331 C12.8752882,23.1545897 12.8674102,23.1470016 12.8583906,23.1452862 L12.8583906,23.1452862 Z M12.1430473,23.1473072 C12.1332178,23.1423925 12.1221763,23.1452606 12.1156365,23.1525954 L12.1099173,23.1665331 L12.0757714,23.7811639 C12.0751323,23.7926639 12.0828099,23.8018602 12.0926481,23.8045676 L12.108256,23.8032389 L12.3092106,23.7104931 L12.3186497,23.7024347 L12.3186497,23.7024347 L12.3225043,23.6906389 L12.340401,23.2611114 L12.337245,23.2485176 L12.337245,23.2485176 L12.3277531,23.2396597 L12.1430473,23.1473072 Z" id="MingCute" fill-rule="nonzero"></path>
                <path d="M12,2 C17.5228,2 22,6.47715 22,12 C22,17.5228 17.5228,22 12,22 C6.47715,22 2,17.5228 2,12 C2,6.47715 6.47715,2 12,2 Z M12,4 C7.58172,4 4,7.58172 4,12 C4,16.4183 7.58172,20 12,20 C16.4183,20 20,16.4183 20,12 C20,7.58172 16.4183,4 12,4 Z M11,6 C11.51285,6 11.9355092,6.38604429 11.9932725,6.88337975 L12,7 L12,8.13197 L13.0528,7.60557 C13.5468,7.35858 14.1474,7.55881 14.3944,8.05279 C14.6237571,8.51147643 14.4675184,9.06217301 14.0485043,9.33625773 L13.9472,9.39443 L12,10.368 L12,11.132 L13.0528,10.6056 C13.5468,10.3586 14.1474,10.5588 14.3944,11.0528 C14.6237571,11.5115143 14.4675184,12.0621439 14.0485043,12.3362269 L13.9472,12.3944 L12,13.368 L12,15.7453 C12.2324,15.6533 12.4881,15.5336 12.7539,15.3818 C13.5203,14.9438 14.2215,14.321 14.6056,13.5528 C14.8526,13.0588 15.4532,12.8586 15.9472,13.1056 C16.4412,13.3526 16.6414,13.9532 16.3944,14.4472 C15.7785,15.679 14.7297,16.5562 13.7461,17.1182 C12.7857,17.6671 11.7366,18 11,18 C10.48715,18 10.0644908,17.613973 10.0067275,17.1166239 L10,17 L10,14.368 L8.94721,14.8944 C8.45324,15.1414 7.85256,14.9412 7.60557,14.4472 C7.37622214,13.9884857 7.53248745,13.4378561 7.95148925,13.1637731 L8.05279,13.1056 L10,12.132 L10,11.368 L8.94721,11.8944 C8.45324,12.1414 7.85256,11.9412 7.60557,11.4472 C7.37622214,10.9884857 7.53248745,10.4378561 7.95148925,10.1637731 L8.05279,10.1056 L10,9.13197 L10,7 C10,6.44772 10.4477,6 11,6 Z" id="形状" fill="#09244B"></path>
            </g>
        </g>
    </g>
</svg>

<svg xmlns="http://www.w3.org/2000/svg" width="24" height="24"><g fill="none" fill-rule="nonzero"><path d="M24 0v24H0V0zM12.593 23.258l-.011.002-.071.035-.02.004-.014-.004-.071-.035c-.01-.004-.019-.001-.024.005l-.004.01-.017.428.005.02.01.013.104.074.015.004.012-.004.104-.074.012-.016.004-.017-.017-.427c-.002-.01-.009-.017-.017-.018m.265-.113-.013.002-.185.093-.01.01-.003.011.018.43.005.012.008.007.201.093c.012.004.023 0 .029-.008l.004-.014-.034-.614c-.003-.012-.01-.02-.02-.022m-.715.002a.023.023 0 0 0-.027.006l-.006.014-.034.614c0 .012.007.02.017.024l.015-.002.201-.093.01-.008.004-.011.017-.43-.003-.012-.01-.01z"/><path fill="#09244B" d="M12 2c5.523 0 10 4.477 10 10s-4.477 10-10 10S2 17.523 2 12 6.477 2 12 2m0 2a8 8 0 1 0 0 16 8 8 0 0 0 0-16m-1 2a1 1 0 0 1 .993.883L12 7v1.132l1.053-.526a1 1 0 0 1 .996 1.73l-.102.058-1.947.974v.764l1.053-.526a1 1 0 0 1 .996 1.73l-.102.058-1.947.974v2.377c.232-.092.488-.211.754-.363.766-.438 1.468-1.061 1.852-1.83a1 1 0 1 1 1.788.895c-.615 1.232-1.664 2.11-2.648 2.671-.96.55-2.01.882-2.746.882a1 1 0 0 1-.993-.883L10 17v-2.632l-1.053.526a1 1 0 0 1-.996-1.73l.102-.058L10 12.132v-.764l-1.053.526a1 1 0 0 1-.996-1.73l.102-.058L10 9.132V7a1 1 0 0 1 1-1"/></g></svg>
